X: 29969
T: Oblique
R: jig
M: 6/8
K: Aminor
|:Acd e2d|dce dcA|e2c dcA|cdd dcA|
Acd e2d|dce dcA|e2c dcA|GAA A3:|
|:GAA cAA|dde dcA|GAA cAA|e2c dcA|
GAA cAA|dde dcA|e2c dcA|GAA AAA:|

